**kern	**mxhm
*I"B Trumpet	*
*I'B Tpt.	*
*clefG2	*
*ITrd1c2	*
*k[b-e-a-d-]	*
*A-:	*
*M4/4	*
=	=
2f	Bb:7
[2e-	.
=	=
2e-]	.
2r	.
=	=
2f	.
[2e-	.
=	=
2e-]	.
2r	.
=	=
2b-	Eb:7
[2a-	.
=	=
2a-]	.
2r	.
=	=
2f	Bb:7
[2e-	.
=	=
2e-]	.
4r	.
4g-X	.
=	=
2.g	F:7
4g-X	.
!!linebreak:original
=	=
2.f	Eb:7
8e-L	.
[8f-XJ	.
=	=
(1f-]	Ab:7
!!linebreak:original
=	=
!LO:TX:a:t=1st ending for solos	!
2f-X)	.
2r	.
=:|!	=:|!
2.gi	F:7
4g-X	.
=	=
2.f	Eb:7
4eX	.
=	=
2f	Bb:7
[2e-i	.
=	=
2e-]	.
2r	.
==	==
*-	*-
